google-analytics-dashboard-for-wp/lite/assets/vue/img/yir-em-icon-tip.svg

<svg width="81" height="81" viewBox="0 0 81 81" fill="none" xmlns="http://www.w3.org/2000/svg">
    <circle cx="40.5" cy="40.5" r="38" fill="#6528F5" stroke="#F0EAFE" stroke-width="5"/>
    <path fill-rule="evenodd" clip-rule="evenodd" d="M47.084 64L33.6472 64L33.6472 53.2282C29.6386 50.8991 26.9288 46.577 26.9288 41.6053C26.9288 34.1927 32.953 28.1685 40.3656 28.1685C47.7783 28.1685 53.8024 34.1927 53.8024 41.6053C53.8024 46.5769 51.0927 50.8991 47.084 53.2282L47.084 64ZM38.126 59.5212L38.126 50.6529L35.8865 49.354C33.1095 47.7416 31.4076 44.7855 31.4076 41.6054C31.4076 36.6562 35.4162 32.6476 40.3654 32.6476C45.3146 32.6476 49.3233 36.6562 49.3233 41.6054C49.3233 44.7855 47.5989 47.7416 44.8444 49.354L42.6049 50.6529L42.6049 59.5212L38.126 59.5212ZM58.2816 43.957L65 43.957L65 39.478L58.2816 39.478L58.2816 43.957ZM59.2894 25.8396L56.1317 22.682L52.1231 26.713L55.2807 29.8707L59.2894 25.8396ZM42.6049 23.8018L38.126 23.8018L38.126 17.0834L42.6049 17.0834L42.6049 23.8018ZM22.4497 43.957L15.7313 43.957L15.7313 39.478L22.4497 39.478L22.4497 43.957ZM24.6221 22.6594L28.6307 26.6904L25.4955 29.8257L21.4645 25.817L24.6221 22.6594Z" fill="#FEFEFF"/>
</svg>

<svg width="81" height="81" fill="none" xmlns="http://www.w3.org/2000/svg"><circle cx="40.5" cy="40.5" r="38" fill="#6528F5" stroke="#F0EAFE" stroke-width="5"/><path fill-rule="evenodd" clip-rule="evenodd" d="M47.084 64H33.647V53.228C29.64 50.9 26.93 46.577 26.93 41.605c0-7.412 6.024-13.436 13.437-13.436 7.412 0 13.436 6.024 13.436 13.436 0 4.972-2.71 9.294-6.718 11.623V64zm-8.958-4.479v-8.868l-2.24-1.299a8.971 8.971 0 01-4.478-7.749 8.955 8.955 0 018.957-8.957 8.955 8.955 0 018.958 8.957c0 3.18-1.724 6.137-4.479 7.749l-2.24 1.299v8.868h-4.478zm20.156-15.564H65v-4.479h-6.718v4.479zm1.007-18.117l-3.157-3.158-4.009 4.031 3.158 3.158 4.008-4.031zm-16.684-2.038h-4.479v-6.719h4.479v6.719zM22.45 43.957h-6.72v-4.479h6.719v4.479zm2.172-21.298l4.009 4.031-3.136 3.136-4.03-4.009 3.157-3.158z" fill="#FEFEFF"/></svg>
